svg/fluentui-system-icons/ic_fluent_text_paragraph_direction_20_regular.svg

<svg width="20" height="20" viewBox="0 0 20 20" fill="none" xmlns="http://www.w3.org/2000/svg">
<path d="M11.5 3C9.29086 3 7.5 4.79086 7.5 7C7.5 9.20914 9.29086 11 11.5 11H13V17.5C13 17.7761 13.2239 18 13.5 18C13.7761 18 14 17.7761 14 17.5V4H15V17.5C15 17.7761 15.2239 18 15.5 18C15.7761 18 16 17.7761 16 17.5V4H16.5C16.7761 4 17 3.77614 17 3.5C17 3.22386 16.7761 3 16.5 3H11.5ZM13 4V10H11.5C9.84315 10 8.5 8.65685 8.5 7C8.5 5.34315 9.84315 4 11.5 4H13ZM3.14645 5.64645C3.34171 5.45118 3.65829 5.45118 3.85355 5.64645L5.85355 7.64645C6.04882 7.84171 6.04882 8.15829 5.85355 8.35355L3.85355 10.3536C3.65829 10.5488 3.34171 10.5488 3.14645 10.3536C2.95118 10.1583 2.95118 9.84171 3.14645 9.64645L4.79289 8L3.14645 6.35355C2.95118 6.15829 2.95118 5.84171 3.14645 5.64645ZM5.85355 11.6464C5.65829 11.4512 5.34171 11.4512 5.14645 11.6464L3.14645 13.6464C2.95118 13.8417 2.95118 14.1583 3.14645 14.3536L5.14645 16.3536C5.34171 16.5488 5.65829 16.5488 5.85355 16.3536C6.04882 16.1583 6.04882 15.8417 5.85355 15.6464L4.20711 14L5.85355 12.3536C6.04882 12.1583 6.04882 11.8417 5.85355 11.6464Z" fill="#212121"/>
</svg>

<svg xmlns="http://www.w3.org/2000/svg" width="20" height="20"><path d="M11.5 3a4 4 0 1 0 0 8H13v6.5a.5.5 0 0 0 1 0V4h1v13.5a.5.5 0 0 0 1 0V4h.5a.5.5 0 0 0 0-1h-5ZM13 4v6h-1.5a3 3 0 0 1 0-6H13ZM3.146 5.646a.5.5 0 0 1 .708 0l2 2a.5.5 0 0 1 0 .708l-2 2a.5.5 0 0 1-.708-.708L4.793 8 3.146 6.354a.5.5 0 0 1 0-.708Zm2.708 6a.5.5 0 0 0-.708 0l-2 2a.5.5 0 0 0 0 .708l2 2a.5.5 0 0 0 .708-.708L4.207 14l1.647-1.646a.5.5 0 0 0 0-.708Z"/></svg>
